Yaru++/actions/16/snap-nodes-midpoint.svg

<svg viewBox="0 0 24 24" xmlns="http://www.w3.org/2000/svg">
  <path d="m4 12v1h7v-1zm9 0v1h7v-1z" fill="#808080"/>
  <path d="m12 9-3 6h6zm0 2.236328 1.382812 2.763672h-2.765624z" fill="#0084ff"/>
</svg>

<svg xmlns="http://www.w3.org/2000/svg" viewBox="0 0 24 24">
 <defs>
  <style id="current-color-scheme" type="text/css">
   .ColorScheme-Text { color:#808080; } .ColorScheme-Highlight { color:#1d99f3; }
  </style>
 </defs>
 <path style="fill:currentColor" class="ColorScheme-Text" d="M 4 12 L 4 13 L 11 13 L 11 12 L 4 12 z M 13 12 L 13 13 L 20 13 L 20 12 L 13 12 z"/>
 <path style="fill:currentColor" class="ColorScheme-Highlight" d="M 12 9 L 9 15 L 15 15 L 12 9 z M 12 11.236328 L 13.382812 14 L 10.617188 14 L 12 11.236328 z"/>
</svg>
